src/assets/icon/Icon=star.svg

<svg width="16" height="16" viewBox="0 0 16 16" fill="none" xmlns="http://www.w3.org/2000/svg">
<path d="M12.4978 15.985C12.3748 15.9854 12.2537 15.9544 12.1465 15.8953L8.01527 13.802L3.884 15.9252C3.76261 15.9819 3.62806 16.0063 3.49397 15.9958C3.35987 15.9853 3.23099 15.9403 3.12037 15.8654C3.00189 15.7823 2.91018 15.6677 2.85605 15.5353C2.80192 15.4028 2.78765 15.2579 2.81491 15.1178L3.57855 10.6322L0.226186 7.44738C0.125336 7.34957 0.0543351 7.22616 0.0211531 7.09103C-0.0120289 6.9559 -0.00607774 6.81439 0.0383385 6.68239C0.0827548 6.55038 0.163878 6.43311 0.272599 6.34375C0.38132 6.25438 0.513335 6.19645 0.653822 6.17646L5.26618 5.51857L7.328 1.42173C7.39053 1.29533 7.48816 1.18873 7.60971 1.11415C7.73127 1.03956 7.87182 1 8.01527 1C8.15873 1 8.29928 1.03956 8.42083 1.11415C8.54238 1.18873 8.64001 1.29533 8.70255 1.42173L10.7644 5.51857L15.3462 6.17646C15.4867 6.19645 15.6187 6.25438 15.7274 6.34375C15.8361 6.43311 15.9172 6.55038 15.9617 6.68239C16.0061 6.81439 16.012 6.9559 15.9788 7.09103C15.9457 7.22616 15.8747 7.34957 15.7738 7.44738L12.4291 10.6396L13.1927 15.1252C13.2118 15.2335 13.2063 15.3445 13.1766 15.4505C13.1468 15.5564 13.0936 15.6546 13.0207 15.7381C12.9478 15.8216 12.857 15.8884 12.7547 15.9336C12.6525 15.9789 12.5413 16.0015 12.4291 15.9999L12.4978 15.985ZM8.01527 12.247C8.13975 12.2485 8.26193 12.2769 8.37418 12.3292L11.4822 13.9365L10.8865 10.5424C10.8652 10.4223 10.8742 10.2988 10.9128 10.1828C10.9514 10.0669 11.0184 9.96188 11.108 9.87708L13.628 7.47729L10.1458 6.93901C10.0188 6.92645 9.89704 6.88292 9.79165 6.81239C9.68627 6.74187 9.60062 6.6466 9.54255 6.53531L8.01527 3.44025L6.488 6.53531C6.43275 6.64274 6.35184 6.73554 6.25213 6.80582C6.15242 6.8761 6.03687 6.92179 5.91527 6.93901L2.43309 7.43991L4.96073 9.8397C5.05029 9.9245 5.11729 10.0295 5.15589 10.1454C5.19449 10.2614 5.20352 10.3849 5.18218 10.5051L4.58655 13.8992L7.69455 12.2918C7.79756 12.257 7.90642 12.2418 8.01527 12.247Z" fill="black"/>
</svg>

<svg xmlns="http://www.w3.org/2000/svg" width="16" height="16" fill="none" viewBox="0 0 16 16"><path fill="#000" d="M12.498 15.985a.723.723 0 0 1-.351-.09l-4.132-2.093-4.131 2.123a.779.779 0 0 1-.764-.06.733.733 0 0 1-.305-.748l.764-4.485L.226 7.447a.744.744 0 0 1-.188-.765.747.747 0 0 1 .235-.338.772.772 0 0 1 .38-.168l4.613-.657 2.062-4.097a.753.753 0 0 1 .282-.308.776.776 0 0 1 1.093.308l2.061 4.097 4.582.657c.14.02.273.078.381.168a.733.733 0 0 1 .046 1.104L12.43 10.64l.764 4.485a.733.733 0 0 1-.172.613.762.762 0 0 1-.592.262l.069-.015zm-4.483-3.738c.125.002.247.03.36.082l3.107 1.607-.595-3.394a.733.733 0 0 1 .221-.665l2.52-2.4-3.482-.538a.774.774 0 0 1-.603-.404L8.015 3.44 6.488 6.535a.752.752 0 0 1-.573.404l-3.482.5 2.528 2.4a.746.746 0 0 1 .221.666L4.587 13.9l3.108-1.607a.872.872 0 0 1 .32-.045z"/></svg>
